X:2992
L:1/8
M:2/2
K:A
 a | e2 c2 Acec | dfce fBBa | e2 c2 Acec | fdBe cA [CA] :| e | ceAe cAec | fdec Bcdf | ecAe cAec | 
 Bcde cAAe | ceAe cAec | fdec Bcdf | ecea gae=g | fdBe cA[CA] ||

